src/lib/packages/icons/src/assets/line/more-vertical-circle.svg

<svg xmlns="http://www.w3.org/2000/svg" width="24" height="24" fill="none"><path fill="currentColor" d="M12 22.75C6.072 22.75 1.25 17.928 1.25 12S6.072 1.25 12 1.25 22.75 6.072 22.75 12 17.928 22.75 12 22.75Zm0-20c-5.101 0-9.25 4.149-9.25 9.25s4.149 9.25 9.25 9.25 9.25-4.149 9.25-9.25S17.101 2.75 12 2.75ZM13.27 8c0-.69-.56-1.25-1.25-1.25h-.01c-.69 0-1.245.56-1.245 1.25s.564 1.25 1.255 1.25 1.25-.56 1.25-1.25Zm0 4c0-.69-.56-1.25-1.25-1.25h-.01c-.69 0-1.245.56-1.245 1.25s.564 1.25 1.255 1.25 1.25-.56 1.25-1.25Zm0 4c0-.69-.56-1.25-1.25-1.25h-.01c-.69 0-1.245.56-1.245 1.25s.564 1.25 1.255 1.25 1.25-.56 1.25-1.25Z"/></svg>

<svg width="24" height="24" viewBox="0 0 24 24" fill="none" xmlns="http://www.w3.org/2000/svg">
<path d="M12 22.75C6.072 22.75 1.25 17.928 1.25 12C1.25 6.072 6.072 1.25 12 1.25C17.928 1.25 22.75 6.072 22.75 12C22.75 17.928 17.928 22.75 12 22.75ZM12 2.75C6.899 2.75 2.75 6.899 2.75 12C2.75 17.101 6.899 21.25 12 21.25C17.101 21.25 21.25 17.101 21.25 12C21.25 6.899 17.101 2.75 12 2.75ZM13.27 8C13.27 7.31 12.71 6.75 12.02 6.75H12.01C11.32 6.75 10.765 7.31 10.765 8C10.765 8.69 11.329 9.25 12.02 9.25C12.711 9.25 13.27 8.69 13.27 8ZM13.27 12C13.27 11.31 12.71 10.75 12.02 10.75H12.01C11.32 10.75 10.765 11.31 10.765 12C10.765 12.69 11.329 13.25 12.02 13.25C12.711 13.25 13.27 12.69 13.27 12ZM13.27 16C13.27 15.31 12.71 14.75 12.02 14.75H12.01C11.32 14.75 10.765 15.31 10.765 16C10.765 16.69 11.329 17.25 12.02 17.25C12.711 17.25 13.27 16.69 13.27 16Z" fill="currentColor"/>
</svg>
